azure-patterns/svg-square-circle-plus-white.svg

<svg xmlns="http://www.w3.org/2000/svg" viewBox="0 0 48 48">
                                
                              
  <path d="M0.0335693 17.6798L0.0335693 47.9749L30.3286 47.9749L30.3286 17.6798L0.0335693 17.6798Z" fill="#0078D4"></path>
  <path d="M48.0253 17.6883C48.0253 27.4552 40.104 35.3765 30.3371 35.3765H12.6488V17.6883C12.6488 7.92138 20.5702 0 30.3371 0C40.104 0 48.0253 7.92138 48.0253 17.6883Z" fill="#50E6FF"></path>
  <path d="M30.3286 17.6967H12.6488V35.3765H30.3286V17.6967Z" fill="white"></path>
  <path d="M27.8091 25.2725H22.7529V20.2163H20.2248V25.2725H15.1686V27.8006H20.2248V32.8568H22.7529V27.8006H27.8091V25.2725Z" fill="#0078D7"></path>
</svg>

<svg xmlns="http://www.w3.org/2000/svg" viewBox="0 0 48 48"><path d="M.034 17.68v30.295h30.295V17.68H.034z" fill="#0078D4"/><path d="M48.025 17.688c0 9.767-7.921 17.689-17.688 17.689H12.65V17.688C12.649 7.921 20.57 0 30.337 0s17.688 7.921 17.688 17.688z" fill="#50E6FF"/><path d="M30.329 17.697h-17.68v17.68h17.68v-17.68z" fill="#fff"/><path d="M27.81 25.273h-5.057v-5.057h-2.528v5.056h-5.056v2.529h5.056v5.056h2.528V27.8h5.056v-2.528z" fill="#0078D7"/></svg>
